material/.icons/material/file-image-outline.svg

<svg xmlns="http://www.w3.org/2000/svg" viewBox="0 0 24 24"><path d="M14 2l6 6v12a2 2 0 01-2 2H6a2 2 0 01-2-2V4a2 2 0 012-2h8m4 18V9h-5V4H6v16h12m-1-7v6H7l5-5 2 2m-4-5.5A1.5 1.5 0 018.5 12 1.5 1.5 0 017 10.5 1.5 1.5 0 018.5 9a1.5 1.5 0 011.5 1.5z"/></svg>

<?xml version="1.0" encoding="UTF-8"?><!DOCTYPE svg PUBLIC "-//W3C//DTD SVG 1.1//EN" "http://www.w3.org/Graphics/SVG/1.1/DTD/svg11.dtd"><svg xmlns="http://www.w3.org/2000/svg" xmlns:xlink="http://www.w3.org/1999/xlink" version="1.1" id="mdi-file-image-outline" width="24" height="24" viewBox="0 0 24 24"><path d="M14,2L20,8V20A2,2 0 0,1 18,22H6A2,2 0 0,1 4,20V4A2,2 0 0,1 6,2H14M18,20V9H13V4H6V20H18M17,13V19H7L12,14L14,16M10,10.5A1.5,1.5 0 0,1 8.5,12A1.5,1.5 0 0,1 7,10.5A1.5,1.5 0 0,1 8.5,9A1.5,1.5 0 0,1 10,10.5Z" /></svg>
